docs/images/chrome.svg

<svg viewBox="1 1 190 190" xmlns="http://www.w3.org/2000/svg" xmlns:xlink="http://www.w3.org/1999/xlink"><linearGradient id="a" gradientUnits="userSpaceOnUse" x1="29.34" x2="81.84" y1="75.02" y2="44.35"><stop offset="0" stop-color="#a52714" stop-opacity=".6"/><stop offset=".66" stop-color="#a52714" stop-opacity="0"/></linearGradient><linearGradient id="b" gradientUnits="userSpaceOnUse" x1="110.87" x2="52.54" y1="164.5" y2="130.33"><stop offset="0" stop-color="#055524" stop-opacity=".4"/><stop offset=".33" stop-color="#055524" stop-opacity="0"/></linearGradient><linearGradient id="c" gradientUnits="userSpaceOnUse" x1="121.86" x2="136.55" y1="49.8" y2="114.13"><stop offset="0" stop-color="#ea6100" stop-opacity=".3"/><stop offset=".66" stop-color="#ea6100" stop-opacity="0"/></linearGradient><linearGradient id="d" gradientUnits="userSpaceOnUse" x1="121.86" x2="136.55" xlink:href="#c" y1="49.8" y2="114.13"/><linearGradient id="e" gradientUnits="userSpaceOnUse" x1="29.34" x2="81.84" xlink:href="#a" y1="75.02" y2="44.35"/><radialGradient id="f" cx="668.18" cy="55.95" gradientTransform="translate(-576)" gradientUnits="userSpaceOnUse" r="84.08"><stop offset="0" stop-color="#3e2723" stop-opacity=".2"/><stop offset="1" stop-color="#3e2723" stop-opacity="0"/></radialGradient><linearGradient id="g" gradientUnits="userSpaceOnUse" x1="110.87" x2="52.54" xlink:href="#b" y1="164.5" y2="130.33"/><radialGradient id="h" cx="597.88" cy="48.52" gradientTransform="translate(-576)" gradientUnits="userSpaceOnUse" r="78.04" xlink:href="#f"/><radialGradient id="i" cx="95.84" cy="96.14" gradientUnits="userSpaceOnUse" r="87.87"><stop offset="0" stop-color="#263238" stop-opacity=".2"/><stop offset="1" stop-color="#263238" stop-opacity="0"/></radialGradient><radialGradient id="j" cx="34.29" cy="32.01" gradientUnits="userSpaceOnUse" r="176.75"><stop offset="0" stop-color="#fff" stop-opacity=".1"/><stop offset="1" stop-color="#fff" stop-opacity="0"/></radialGradient><clipPath id="k"><circle cx="96" cy="96" r="88"/></clipPath><clipPath id="l"><path d="m8 184h83.8l39-39v-29h-69.6l-53.2-91.5z"/></clipPath><clipPath id="m"><path d="m96 56 34.6 60-38.6 68h92v-128z"/></clipPath><clipPath id="n"><path d="m22 8v40.3l39.4 67.7 34.6-60h88v-48z"/></clipPath><g clip-path="url(#k)"><path d="m22 8v108h39.4l34.6-60h88v-48z" fill="#db4437"/><path d="m22 8v108h39.4l34.6-60h88v-48z" fill="url(#a)"/></g><path clip-path="url(#k)" d="m62.3 115.7-39.8-68.3-.6 1 39 67.8z" fill="#3e2723" fill-opacity=".15"/><g clip-path="url(#k)"><path d="m8 184h83.8l39-39v-29h-69.6l-53.2-91.5z" fill="#0f9d58"/><path d="m8 184h83.8l39-39v-29h-69.6l-53.2-91.5z" fill="url(#b)"/></g><path clip-path="url(#k)" d="m129.8 117.3-.8-.4-38.3 67h1l38.3-67z" fill="#263238" fill-opacity=".15"/><g clip-path="url(#k)"><g clip-path="url(#l)"><path d="m96 56 34.6 60-38.6 68h92v-128z" fill="#ffcd40"/><path d="m96 56 34.6 60-38.6 68h92v-128z" fill="url(#c)"/></g></g><g clip-path="url(#k)"><path d="m96 56 34.6 60-38.6 68h92v-128z" fill="#ffcd40"/><path d="m96 56 34.6 60-38.6 68h92v-128z" fill="url(#d)"/></g><g clip-path="url(#k)"><g clip-path="url(#m)"><path d="m22 8v108h39.4l34.6-60h88v-48z" fill="#db4437"/><path d="m22 8v108h39.4l34.6-60h88v-48z" fill="url(#e)"/></g></g><path clip-path="url(#k)" d="m96 56v21l78.4-21z" fill="url(#f)"/><g clip-path="url(#k)"><g clip-path="url(#n)"><path d="m8 184h83.8l39-39v-29h-69.6l-53.2-91.5z" fill="#0f9d58"/><path d="m8 184h83.8l39-39v-29h-69.6l-53.2-91.5z" fill="url(#g)"/></g></g><path clip-path="url(#k)" d="m22 48.5 57.2 57.2-17.8 10.3z" fill="url(#h)"/><path clip-path="url(#k)" d="m91.8 184 21-78.3 17.8 10.3z" fill="url(#i)"/><g clip-path="url(#k)"><circle cx="96" cy="96" fill="#f1f1f1" r="40"/><circle cx="96" cy="96" fill="#4285f4" r="32"/></g><g clip-path="url(#k)"><path d="m96 55c-22 0-40 18-40 40v1c0-22 18-40 40-40h88v-1z" fill="#3e2723" fill-opacity=".2"/><path d="m130.6 116c-7 12-19.8 20-34.6 20s-27.7-8-34.6-20l-53.4-91.5v1l53.4 91.5c7 12 19.8 20 34.6 20s27.7-8 34.6-20z" fill="#fff" fill-opacity=".1"/><path d="m97 56h-.5c22 .3 39.5 18 39.5 40s-17.6 39.7-39.5 40h.5c22 0 40-18 40-40s-18-40-40-40z" fill="#3e2723" opacity=".1"/><path d="m131 117.3c3.4-5.8 5.4-12.6 5.4-20 0-4-.7-8.2-2-12 1 3.4 1.6 7 1.6 10.7 0 7.3-2 14-5.4 20l-38.6 68h1l38.2-66.5z" fill="#fff" fill-opacity=".2"/></g><g clip-path="url(#k)"><path d="m96 9c48.4 0 87.7 39 88 87.5v-.5c0-48.6-39.4-88-88-88s-88 39.4-88 88v.5c.3-48.5 39.6-87.5 88-87.5z" fill="#fff" fill-opacity=".2"/><path d="m96 183c48.4 0 87.7-39 88-87.5v.5c0 48.6-39.4 88-88 88s-88-39.4-88-88v-.5c.3 48.5 39.6 87.5 88 87.5z" fill="#3e2723" fill-opacity=".15"/></g><circle cx="96" cy="96" fill="url(#j)" r="88"/><path d="m0 0h192v192h-192z" fill="none"/></svg>

<svg xmlns="http://www.w3.org/2000/svg" xmlns:xlink="http://www.w3.org/1999/xlink" viewBox="1 1 190 190"><defs><linearGradient id="b" x1="29.34" x2="81.84" y1="75.02" y2="44.35" gradientUnits="userSpaceOnUse"><stop offset="0" stop-color="#a52714" stop-opacity=".6"/><stop offset=".66" stop-color="#a52714" stop-opacity="0"/></linearGradient><linearGradient id="c" x1="110.87" x2="52.54" y1="164.5" y2="130.33" gradientUnits="userSpaceOnUse"><stop offset="0" stop-color="#055524" stop-opacity=".4"/><stop offset=".33" stop-color="#055524" stop-opacity="0"/></linearGradient><linearGradient id="a" x1="121.86" x2="136.55" y1="49.8" y2="114.13" gradientUnits="userSpaceOnUse"><stop offset="0" stop-color="#ea6100" stop-opacity=".3"/><stop offset=".66" stop-color="#ea6100" stop-opacity="0"/></linearGradient><linearGradient id="i" x1="121.86" x2="136.55" y1="49.8" y2="114.13" xlink:href="#a" gradientUnits="userSpaceOnUse"/><linearGradient id="l" x1="29.34" x2="81.84" y1="75.02" y2="44.35" xlink:href="#b" gradientUnits="userSpaceOnUse"/><radialGradient id="d" cx="668.18" cy="55.95" r="84.08" gradientTransform="translate(-576)" gradientUnits="userSpaceOnUse"><stop offset="0" stop-color="#3e2723" stop-opacity=".2"/><stop offset="1" stop-color="#3e2723" stop-opacity="0"/></radialGradient><linearGradient id="o" x1="110.87" x2="52.54" y1="164.5" y2="130.33" xlink:href="#c" gradientUnits="userSpaceOnUse"/><radialGradient id="p" cx="597.88" cy="48.52" r="78.04" xlink:href="#d" gradientTransform="translate(-576)" gradientUnits="userSpaceOnUse"/><radialGradient id="q" cx="671.84" cy="96.14" r="87.87" gradientTransform="translate(-576)" gradientUnits="userSpaceOnUse"><stop offset="0" stop-color="#263238" stop-opacity=".2"/><stop offset="1" stop-color="#263238" stop-opacity="0"/></radialGradient><radialGradient id="r" cx="34.29" cy="32.01" r="176.75" gradientUnits="userSpaceOnUse"><stop offset="0" stop-color="#fff" stop-opacity=".1"/><stop offset="1" stop-color="#fff" stop-opacity="0"/></radialGradient><circle id="e" cx="96" cy="96" r="88"/></defs><clipPath id="f"><use xlink:href="#e" overflow="visible"/></clipPath><g clip-path="url(#f)"><path fill="#db4437" d="M22 8v108h39.4L96 56h88V8z"/><path fill="url(#b)" d="M22 8v108h39.4L96 56h88V8z"/></g><path fill="#3e2723" fill-opacity=".15" d="M62.3 115.7L22.5 47.4l-.6 1 39 67.8z" clip-path="url(#f)"/><g clip-path="url(#f)"><path fill="#0f9d58" d="M8 184h83.8l39-39v-29H61.2L8 24.5z"/><path fill="url(#c)" d="M8 184h83.8l39-39v-29H61.2L8 24.5z"/></g><path fill="#263238" fill-opacity=".15" d="M129.8 117.3l-.8-.4-38.3 67h1l38.3-67z" clip-path="url(#f)"/><g clip-path="url(#f)"><defs><path id="g" d="M8 184h83.8l39-39v-29H61.2L8 24.5z"/></defs><clipPath id="h"><use xlink:href="#g" overflow="visible"/></clipPath><g clip-path="url(#h)"><path fill="#ffcd40" d="M96 56l34.6 60L92 184h92V56z"/><path fill="url(#a)" d="M96 56l34.6 60L92 184h92V56z"/></g></g><g clip-path="url(#f)"><path fill="#ffcd40" d="M96 56l34.6 60L92 184h92V56z"/><path fill="url(#i)" d="M96 56l34.6 60L92 184h92V56z"/></g><g clip-path="url(#f)"><defs><path id="j" d="M96 56l34.6 60L92 184h92V56z"/></defs><clipPath id="k"><use xlink:href="#j" overflow="visible"/></clipPath><g clip-path="url(#k)"><path fill="#db4437" d="M22 8v108h39.4L96 56h88V8z"/><path fill="url(#l)" d="M22 8v108h39.4L96 56h88V8z"/></g></g><path fill="url(#d)" d="M96 56v21l78.4-21z" clip-path="url(#f)"/><g clip-path="url(#f)"><defs><path id="m" d="M22 8v40.3L61.4 116 96 56h88V8z"/></defs><clipPath id="n"><use xlink:href="#m" overflow="visible"/></clipPath><g clip-path="url(#n)"><path fill="#0f9d58" d="M8 184h83.8l39-39v-29H61.2L8 24.5z"/><path fill="url(#o)" d="M8 184h83.8l39-39v-29H61.2L8 24.5z"/></g></g><path fill="url(#p)" d="M22 48.5l57.2 57.2L61.4 116z" clip-path="url(#f)"/><path fill="url(#q)" d="M91.8 184l21-78.3 17.8 10.3z" clip-path="url(#f)"/><g clip-path="url(#f)"><circle cx="96" cy="96" r="40" fill="#f1f1f1"/><circle cx="96" cy="96" r="32" fill="#4285f4"/></g><g clip-path="url(#f)"><path fill="#3e2723" fill-opacity=".2" d="M96 55c-22 0-40 18-40 40v1c0-22 18-40 40-40h88v-1H96z"/><path fill="#fff" fill-opacity=".1" d="M130.6 116c-7 12-19.8 20-34.6 20s-27.7-8-34.6-20L8 24.5v1L61.4 117c7 12 19.8 20 34.6 20s27.7-8 34.6-20v-1z"/><path fill="#3e2723" d="M97 56h-.5c22 .3 39.5 18 39.5 40s-17.6 39.7-39.5 40h.5c22 0 40-18 40-40s-18-40-40-40z" opacity=".1"/><path fill="#fff" fill-opacity=".2" d="M131 117.3c3.4-5.8 5.4-12.6 5.4-20 0-4-.7-8.2-2-12 1 3.4 1.6 7 1.6 10.7 0 7.3-2 14-5.4 20L92 184h1l38.2-66.5z"/></g><g clip-path="url(#f)"><path fill="#fff" fill-opacity=".2" d="M96 9c48.4 0 87.7 39 88 87.5V96c0-48.6-39.4-88-88-88S8 47.4 8 96v.5C8.3 48 47.6 9 96 9z"/><path fill="#3e2723" fill-opacity=".15" d="M96 183c48.4 0 87.7-39 88-87.5v.5c0 48.6-39.4 88-88 88S8 144.6 8 96v-.5C8.3 144 47.6 183 96 183z"/></g><circle cx="96" cy="96" r="88" fill="url(#r)"/><path fill="none" d="M0 0h192v192H0z"/></svg>
